X: 4
T: The Hare In The Corn
R: jig
M: 6/8
L: 1/8
K: Dmaj
|: F2 A AFA | BdB A2 G | F2 E EDE | F2 D D2 E |
F2 A AFA | B/c/dB A2 A | Bcd edc |[1 d2 A B2 A :|[2 (d3 d2) e ||
|: f3 fed | g2 e ede | faf fed | a^ga ba=g |
f3 fed | g2 e ecA |[1 BB/c/d ecA | d3 d2 e :|[2 Bcd edc | d2 A B2 A |]


Tune 1736	Setting 15168

